X: 40478
T: Tomaisin A' Rí
R: jig
M: 6/8
K: Eminor
dc|:BEE EFA|BAB d2 B|AFF D3|FDF AFD|
BEE EF/G/A|BAB d2 e|dBA AFD|1 FED E2 d/c/:|2 FED E2 A||
|:Bee Bee|fef d2 B|Add Bdd|Add Bcd|
Bee Bee|f3 d2 e|fdB AFD|FED E2z:|

